icons/2_Variations/Hostingpalvelu bg.var.svg

<svg width="1024" height="1024" viewBox="0 0 1024 1024" fill="none" xmlns="http://www.w3.org/2000/svg">
<g clip-path="url(#clip0_3_116)">
<path d="M512 1024C794.77 1024 1024 794.77 1024 512C1024 229.23 794.77 0 512 0C229.23 0 0 229.23 0 512C0 794.77 229.23 1024 512 1024Z" fill="#98DC9A"/>
<path d="M486.75 241.371C523.25 238.071 560.47 241.811 595.34 253.241C634.91 265.991 671.29 288.161 701.17 317.031C728.44 343.561 750.28 375.741 764.48 411.051C790.3 474.831 790.57 548.591 764.87 612.441C748.2 654.121 721.04 691.521 686.71 720.421C646.83 754.131 597.06 776.371 545.03 782.051C514.69 785.011 483.77 784.521 453.9 778.001C414.75 769.661 377.62 752.181 346.02 727.641C309.16 699.171 279.77 661.141 261.58 618.271C247.98 586.371 240.71 551.821 240.06 517.151C238.98 467.891 251.89 418.431 276.79 375.921C301.83 332.831 338.85 296.791 382.65 273.011C414.72 255.531 450.38 244.721 486.74 241.371M485.29 282.821C466.05 285.061 447.06 289.621 428.97 296.581C384.75 313.421 346.11 344.431 319.97 383.871C291.89 425.701 278.24 476.951 281.64 527.201C284.31 569.551 298.99 611.051 323.64 645.591C349.56 682.211 386.38 711.021 428.22 727.231C462.71 740.821 500.52 745.491 537.33 741.591C596.26 735.461 652.04 705.111 689.62 659.361C725.08 616.841 744.4 561.241 742.74 505.891C741.82 465.901 730 426.271 709.16 392.141C684.54 351.551 647.17 318.771 603.51 300.071C566.54 284.021 525.3 278.201 485.29 282.841V282.821ZM359.76 368.661C359.75 366.711 359.67 363.211 362.5 363.411C375.97 363.271 389.43 363.351 402.88 363.371C405.38 362.891 407.17 365.141 406.93 367.501C407.01 395.511 406.97 423.511 406.96 451.531C416.03 441.881 428.34 434.911 441.82 434.551C461.15 434.311 482.07 439.991 495.04 455.151C507.21 469.461 511.5 488.761 512.03 507.141C512.12 532.711 512 558.281 512.08 583.861C512.02 585.951 512.11 588.231 510.88 590.051C507.96 591.951 504.3 590.861 501.05 590.921C490.96 590.721 480.86 590.721 470.78 591.131C467.99 591.551 464.48 589.731 464.88 586.521C464.79 560.911 464.89 535.291 464.84 509.661C464.56 500.661 462.61 490.851 455.84 484.391C448.34 477.641 437.19 476.701 427.74 478.941C419.47 480.731 412.63 487.041 409.68 494.901C405.31 505.561 407.65 517.231 406.75 528.381C406.5 546.901 406.64 565.431 406.99 583.951C407.13 586.741 406.76 591.261 402.96 591.051C389.87 590.741 376.76 590.721 363.67 591.011C360.99 591.321 359.4 588.881 359.79 586.421C359.71 513.831 359.8 441.241 359.74 368.651L359.76 368.661ZM588.38 442.281C608.99 430.951 635.06 429.711 656.36 439.931C671.21 447.191 684.35 458.491 692.55 472.951C700.59 486.971 703.81 503.511 702.62 519.561C700.87 542.211 688.66 563.691 670.38 577.111C653.3 589.911 630.64 595.751 609.67 590.831C599.39 588.651 590.47 582.911 581.32 578.071C581.23 607.301 581.33 636.541 581.27 665.791C581.02 668.571 581.48 671.681 580.02 674.201C577.02 675.721 573.55 675.011 570.33 675.171C559.76 674.931 549.17 675.591 538.63 674.771C538.23 673.051 537.82 671.311 537.84 669.551C537.9 593.151 537.8 516.731 537.89 440.331C537.68 438.471 539.4 436.841 541.24 437.061C552.6 436.611 565.03 436.631 574.55 443.811C578.88 447.021 584.32 444.751 588.38 442.301M615.9 476.061C603.97 478.351 593.64 486.961 588.86 498.061C583.99 509.061 585 522.351 591.41 532.521C599.56 546.051 616.89 552.921 632.15 548.871C648.94 544.941 661.56 528.131 660.28 510.861C659.7 489.131 637.21 471.271 615.91 476.061H615.9Z" fill="white"/>
</g>
<defs>
<clipPath id="clip0_3_116">
<rect width="1024" height="1024" fill="white"/>
</clipPath>
</defs>
</svg>

<svg width="1024" height="1024" fill="none" xmlns="http://www.w3.org/2000/svg"><g clip-path="url(#a)"><path d="M512 1024c282.77 0 512-229.23 512-512S794.77 0 512 0 0 229.23 0 512s229.23 512 512 512Z" fill="#98DC9A"/><path d="M486.75 241.371c36.5-3.3 73.72.44 108.59 11.87 39.57 12.75 75.95 34.92 105.83 63.79 27.27 26.53 49.11 58.71 63.31 94.02 25.82 63.78 26.09 137.54.39 201.39-16.67 41.68-43.83 79.08-78.16 107.98-39.88 33.71-89.65 55.95-141.68 61.63-30.34 2.96-61.26 2.47-91.13-4.05-39.15-8.34-76.28-25.82-107.88-50.36-36.86-28.47-66.25-66.5-84.44-109.37-13.6-31.9-20.87-66.45-21.52-101.12-1.08-49.26 11.83-98.72 36.73-141.23 25.04-43.09 62.06-79.13 105.86-102.91 32.07-17.48 67.73-28.29 104.09-31.64m-1.45 41.45c-19.24 2.24-38.23 6.8-56.32 13.76-44.22 16.84-82.86 47.85-109 87.29-28.08 41.83-41.73 93.08-38.33 143.33 2.67 42.35 17.35 83.85 42 118.39 25.92 36.62 62.74 65.43 104.58 81.64 34.49 13.59 72.3 18.26 109.11 14.36 58.93-6.13 114.71-36.48 152.29-82.23 35.46-42.52 54.78-98.12 53.12-153.47-.92-39.99-12.74-79.62-33.58-113.75-24.62-40.59-61.99-73.37-105.65-92.07-36.97-16.05-78.21-21.87-118.22-17.23v-.02Zm-125.53 85.84c-.01-1.95-.09-5.45 2.74-5.25 13.47-.14 26.93-.06 40.38-.04 2.5-.48 4.29 1.77 4.05 4.13.08 28.01.04 56.01.03 84.03 9.07-9.65 21.38-16.62 34.86-16.98 19.33-.24 40.25 5.44 53.22 20.6 12.17 14.31 16.46 33.61 16.99 51.99.09 25.57-.03 51.14.05 76.72-.06 2.09.03 4.37-1.2 6.19-2.92 1.9-6.58.81-9.83.87-10.09-.2-20.19-.2-30.27.21-2.79.42-6.3-1.4-5.9-4.61-.09-25.61.01-51.23-.04-76.86-.28-9-2.23-18.81-9-25.27-7.5-6.75-18.65-7.69-28.1-5.45-8.27 1.79-15.11 8.1-18.06 15.96-4.37 10.66-2.03 22.33-2.93 33.48-.25 18.52-.11 37.05.24 55.57.14 2.79-.23 7.31-4.03 7.1-13.09-.31-26.2-.33-39.29-.04-2.68.31-4.27-2.13-3.88-4.59-.08-72.59.01-145.18-.05-217.77l.02.01Zm228.62 73.62c20.61-11.33 46.68-12.57 67.98-2.35 14.85 7.26 27.99 18.56 36.19 33.02 8.04 14.02 11.26 30.56 10.07 46.61-1.75 22.65-13.96 44.13-32.24 57.55-17.08 12.8-39.74 18.64-60.71 13.72-10.28-2.18-19.2-7.92-28.35-12.76-.09 29.23.01 58.47-.05 87.72-.25 2.78.21 5.89-1.25 8.41-3 1.52-6.47.81-9.69.97-10.57-.24-21.16.42-31.7-.4-.4-1.72-.81-3.46-.79-5.22.06-76.4-.04-152.82.05-229.22-.21-1.86 1.51-3.49 3.35-3.27 11.36-.45 23.79-.43 33.31 6.75 4.33 3.21 9.77.94 13.83-1.51m27.52 33.76c-11.93 2.29-22.26 10.9-27.04 22-4.87 11-3.86 24.29 2.55 34.46 8.15 13.53 25.48 20.4 40.74 16.35 16.79-3.93 29.41-20.74 28.13-38.01-.58-21.73-23.07-39.59-44.37-34.8h-.01Z" fill="#fff"/></g><defs><clipPath id="a"><path fill="#fff" d="M0 0h1024v1024H0z"/></clipPath></defs></svg>
